assets/instaLogo.svg

<svg width="168" height="48" viewBox="0 0 168 48" fill="none" xmlns="http://www.w3.org/2000/svg">
<path d="M8.63603 0.165632C5.2014 1.60432 1.42616 5.6636 0.233725 10.7628C-1.27663 17.2214 5.00742 19.9535 5.52326 19.0589C6.12983 18.0065 4.39723 17.6508 4.04052 14.2993C3.57959 9.97078 5.59197 5.13429 8.12479 3.0121C8.59493 2.61758 8.5729 3.16662 8.5729 4.18152C8.5729 5.99665 8.47263 22.2917 8.47263 25.6924C8.47263 30.2939 8.2826 31.747 7.94101 33.1831C7.59548 34.6379 7.0392 35.6212 7.46036 35.9999C7.93115 36.4234 9.94123 35.4157 11.1047 33.7919C12.5 31.8443 12.9886 29.5048 13.0764 26.9651C13.1822 23.9029 13.1776 19.0438 13.1822 16.2723C13.1862 13.7306 13.225 6.2876 13.1375 1.81308C13.1161 0.715002 10.0724 -0.43634 8.63603 0.165632" fill="#343433"/>
<path d="M130.59 21.7009C130.479 24.0933 129.949 25.963 129.292 27.282C128.02 29.8355 125.38 30.6282 124.259 26.9578C123.648 24.957 123.619 21.6154 124.058 18.8232C124.505 15.979 125.754 13.8308 127.821 14.0245C129.86 14.2162 130.814 16.8433 130.59 21.7012V21.7009ZM96.2173 36.5434C96.1897 40.5182 95.564 44.0031 94.2227 45.0157C92.3198 46.4511 89.7623 45.3741 90.2919 42.4737C90.7604 39.907 92.9766 37.2857 96.2229 34.0829C96.2229 34.0829 96.2295 34.8134 96.2173 36.5434ZM95.6978 21.6775C95.5815 23.8566 95.0166 26.0452 94.4002 27.282C93.1279 29.8355 90.4688 30.6338 89.3668 26.9578C88.6132 24.4461 88.7937 21.1959 89.1662 19.1477C89.6502 16.4902 90.8232 14.0248 92.929 14.0248C94.9765 14.0248 95.9865 16.2713 95.6978 21.6775ZM75.7861 21.6446C75.6611 23.9519 75.211 25.8808 74.4887 27.282C73.1816 29.8181 70.5955 30.6223 69.4553 26.9578C68.6331 24.3155 68.9129 20.7129 69.2548 18.7666C69.7624 15.8784 71.0334 13.8308 73.0175 14.0248C75.0555 14.224 76.0461 16.8433 75.7861 21.6446V21.6446ZM167.036 24.3399C166.538 24.3399 166.311 24.8534 166.122 25.7174C165.47 28.7237 164.784 29.4019 163.9 29.4019C162.912 29.4019 162.025 27.9139 161.796 24.9346C161.617 22.5918 161.646 18.2791 161.875 13.989C161.922 13.1075 161.679 12.2353 159.315 11.3766C158.297 11.0071 156.819 10.4629 156.082 12.2403C154.002 17.2619 153.188 21.2485 152.996 22.8673C152.986 22.9512 152.884 22.9686 152.866 22.7726C152.744 21.4757 152.471 19.1184 152.437 14.1665C152.43 13.2003 152.226 12.378 151.159 11.7047C150.467 11.2674 148.366 10.4948 147.61 11.4144C146.954 12.166 146.195 14.1892 145.406 16.5879C144.765 18.5375 144.318 19.8558 144.318 19.8558C144.318 19.8558 144.327 14.5962 144.334 12.6009C144.338 11.8484 143.821 11.5975 143.666 11.5522C142.965 11.349 141.585 11.0094 140.999 11.0094C140.275 11.0094 140.099 11.4131 140.099 12.0022C140.099 12.0795 139.984 18.9271 139.984 23.7152C139.984 23.9233 139.984 24.1502 139.985 24.3915C139.586 26.5923 138.289 29.5794 136.878 29.5794C135.466 29.5794 134.8 28.3308 134.8 22.6224C134.8 19.2923 134.9 17.8441 134.949 15.4355C134.977 14.0482 135.033 12.9829 135.029 12.7413C135.019 11.9999 133.737 11.6261 133.14 11.488C132.541 11.349 132.02 11.2947 131.614 11.3181C131.038 11.3509 130.631 11.728 130.631 12.2475C130.631 12.5263 130.634 13.0556 130.634 13.0556C129.893 11.8905 128.7 11.0797 127.907 10.8446C125.77 10.2101 123.54 10.7723 121.858 13.126C120.521 14.9957 119.716 17.1139 119.398 20.1566C119.167 22.3814 119.242 24.6371 119.654 26.5449C119.156 28.6977 118.232 29.5794 117.22 29.5794C115.75 29.5794 114.685 27.1814 114.809 23.033C114.89 20.3046 115.436 18.3899 116.033 15.6197C116.288 14.4387 116.081 13.8206 115.562 13.2282C115.087 12.6848 114.073 12.4069 112.617 12.7482C111.579 12.9918 110.095 13.2539 108.738 13.4551C108.738 13.4551 108.82 13.1279 108.887 12.5519C109.24 9.53056 105.957 9.77549 104.909 10.7404C104.284 11.3168 103.858 11.9963 103.697 13.218C103.44 15.1571 105.022 16.0717 105.022 16.0717C104.503 18.4467 103.231 21.549 101.918 23.7922C101.215 24.9938 100.677 25.8844 99.9823 26.8309C99.9597 23.0324 99.9844 19.2338 100.057 15.4359C100.085 14.0485 100.141 13.0115 100.138 12.7696C100.13 12.2278 99.8133 12.0226 99.1548 11.7635C98.5723 11.5341 97.8838 11.3756 97.1694 11.3197C96.2679 11.25 95.7248 11.7277 95.7393 12.2932C95.7419 12.4 95.7419 13.0556 95.7419 13.0556C95.0005 11.8905 93.8081 11.0797 93.0148 10.8446C90.8778 10.2101 88.6481 10.7723 86.9661 13.126C85.6297 14.9957 84.7545 17.6199 84.5063 20.1336C84.2755 22.4761 84.3179 24.4668 84.6329 26.1442C84.2932 27.8235 83.3161 29.5798 82.2118 29.5798C80.7994 29.5798 79.9959 28.3308 79.9959 22.6224C79.9959 19.2923 80.0959 17.8441 80.1452 15.4355C80.1738 14.0485 80.2287 12.9829 80.2257 12.7413C80.2152 11.9999 78.9333 11.6265 78.3366 11.488C77.7126 11.3434 77.1738 11.2908 76.7599 11.3214C76.2141 11.3618 75.8301 11.8507 75.8301 12.2153V13.0556C75.0887 11.8905 73.8963 11.0797 73.103 10.8446C70.966 10.2101 68.7488 10.7815 67.0543 13.126C65.9497 14.6544 65.0551 16.3489 64.5948 20.1001C64.4617 21.184 64.4028 22.1996 64.4107 23.1481C63.9702 25.8427 62.0239 28.9482 60.4323 28.9482C59.5009 28.9482 58.6136 27.1413 58.6136 23.2911C58.6136 18.1623 58.9312 10.8598 58.9851 10.1562C58.9851 10.1562 60.9961 10.122 61.3854 10.1174C62.3888 10.1062 63.2972 10.1302 64.6336 10.0615C65.3037 10.0277 65.9494 7.62207 65.2576 7.32454C64.944 7.18974 62.7284 7.07204 61.85 7.0533C61.1115 7.03686 59.0554 6.88432 59.0554 6.88432C59.0554 6.88432 59.2399 2.0373 59.2829 1.52541C59.3191 1.09834 58.7668 0.878727 58.4505 0.745576C57.6805 0.420097 56.9918 0.263933 56.1754 0.0956038C55.0471 -0.137163 54.5355 0.0906723 54.4356 1.04245C54.285 2.48738 54.2071 6.7196 54.2071 6.7196C53.3793 6.7196 50.5512 6.55785 49.7234 6.55785C48.9541 6.55785 48.1236 9.86656 49.1875 9.90733C50.4112 9.95467 52.5439 9.9961 53.9576 10.0382C53.9576 10.0382 53.8944 17.4611 53.8944 19.7532C53.8944 19.9965 53.8958 20.2316 53.8971 20.4594C53.1189 24.5148 50.3783 26.7057 50.3783 26.7057C50.9668 24.0226 49.7645 22.0076 47.5989 20.302C46.801 19.6737 45.2258 18.4839 43.4637 17.18C43.4637 17.18 44.4841 16.174 45.3896 14.1501C46.0307 12.716 46.0586 11.0758 44.4841 10.7138C41.8829 10.1154 39.7384 12.0259 39.0986 14.0656C38.6028 15.6456 38.8672 16.8177 39.8383 18.0354C39.909 18.1245 39.9863 18.2156 40.0652 18.307C39.4783 19.4386 38.6715 20.9625 37.9884 22.144C36.092 25.4251 34.6596 28.0198 33.577 28.0198C32.7117 28.0198 32.7232 25.385 32.7232 22.9183C32.7232 20.7918 32.8803 17.5946 33.0059 14.2849C33.0473 13.1901 32.4996 12.5664 31.5823 12.0016C31.0247 11.6583 29.8349 10.9837 29.1458 10.9837C28.1142 10.9837 25.1382 11.1241 22.3266 19.2578C21.9721 20.2829 21.2758 22.1509 21.2758 22.1509L21.336 12.3698C21.336 12.1403 21.2137 11.9187 20.9339 11.7672C20.4601 11.5097 19.1947 10.9837 18.0693 10.9837C17.5335 10.9837 17.2655 11.2329 17.2655 11.73L17.1675 27.0328C17.1675 28.1957 17.1978 29.5522 17.3129 30.1452C17.4273 30.739 17.613 31.2223 17.8425 31.5096C18.0723 31.7966 18.3376 32.0159 18.7752 32.106C19.1826 32.1899 21.4129 32.4762 21.529 31.624C21.6677 30.6022 21.6733 29.4976 22.8444 25.3768C24.6677 18.9612 27.0447 15.8314 28.1625 14.7195C28.3581 14.5255 28.581 14.5137 28.5702 14.8316C28.5228 16.2381 28.3548 19.7532 28.2421 22.7385C27.9393 30.7291 29.3927 32.2102 31.4702 32.2102C33.0595 32.2102 35.2997 30.6312 37.701 26.634C39.039 24.4065 40.3709 22.1752 41.6965 19.9403C42.4241 20.614 43.2411 21.3389 44.0571 22.1135C45.9541 23.9138 46.5767 25.6247 46.1635 27.2475C45.8479 28.4879 44.6574 29.7665 42.5392 28.5241C41.9217 28.1615 41.6581 27.881 41.0374 27.4724C40.704 27.2531 40.1947 27.1873 39.8893 27.4175C39.0963 28.0152 38.6426 28.7759 38.3835 29.7175C38.1317 30.6338 39.0493 31.1181 40.0007 31.5419C40.8197 31.9065 42.5803 32.2369 43.7027 32.2743C48.0769 32.4206 51.5812 30.1623 54.0207 24.3369C54.4573 29.368 56.3155 32.2148 59.5443 32.2148C61.703 32.2148 63.8673 29.4246 64.8138 26.6797C65.0854 27.7985 65.4878 28.7717 66.0072 29.5946C68.495 33.5365 73.3213 32.6883 75.7456 29.3408C76.4952 28.3065 76.6093 27.9349 76.6093 27.9349C76.963 31.0954 79.5084 32.1997 80.9655 32.1997C82.5978 32.1997 84.2827 31.4281 85.464 28.769C85.6024 29.0577 85.7536 29.3335 85.9187 29.5946C88.4064 33.5365 93.2331 32.6883 95.6574 29.3408C95.7718 29.1836 95.8711 29.0416 95.9576 28.9134L96.0286 30.9895L93.7966 33.0368C90.0552 36.4658 87.2134 39.0663 87.0043 42.0953C86.738 45.9573 89.8685 47.3927 92.2402 47.5808C94.7543 47.7803 96.9113 46.3903 98.2349 44.445C99.4001 42.7324 100.163 39.0469 100.107 35.4072C100.085 33.9494 100.047 32.0962 100.019 30.1094C101.332 28.5843 102.812 26.6564 104.174 24.4004C105.659 21.9415 107.25 18.6394 108.065 16.0694C108.065 16.0694 109.448 16.0816 110.923 15.9849C111.395 15.954 111.531 16.0507 111.443 16.3962C111.338 16.8144 109.579 23.5979 111.184 28.1168C112.283 31.2105 114.759 32.2053 116.228 32.2053C117.947 32.2053 119.591 30.9073 120.472 28.9801C120.579 29.1948 120.689 29.4026 120.811 29.5949C123.299 33.5368 128.108 32.683 130.549 29.3408C131.1 28.5866 131.413 27.9349 131.413 27.9349C131.937 31.2062 134.481 32.2165 135.938 32.2165C137.456 32.2165 138.896 31.5941 140.065 28.8289C140.114 30.0466 140.191 31.0421 140.312 31.3558C140.386 31.5481 140.817 31.7888 141.131 31.9051C142.52 32.42 143.935 32.1767 144.459 32.0708C144.822 31.9972 145.105 31.7059 145.144 30.9543C145.246 28.9801 145.184 25.6632 145.782 23.1977C146.786 19.0609 147.724 17.4562 148.168 16.6618C148.417 16.2164 148.697 16.1431 148.708 16.6142C148.729 17.5676 148.776 20.3664 149.165 24.1275C149.451 26.8931 149.833 28.528 150.126 29.0459C150.964 30.5253 151.998 30.5953 152.84 30.5953C153.376 30.5953 154.497 30.4474 154.396 29.5058C154.347 29.0468 154.433 26.2102 155.423 22.1345C156.07 19.4728 157.148 17.0682 157.537 16.1888C157.681 15.8646 157.748 16.12 157.745 16.17C157.663 18.0029 157.479 23.9983 158.226 27.2774C159.239 31.7194 162.167 32.2165 163.187 32.2165C165.366 32.2165 167.147 30.5595 167.747 26.1994C167.892 25.15 167.678 24.3399 167.036 24.3399Z" fill="#343433"/>
</svg>

<?xml version="1.0" encoding="utf-8"?>
<!-- Generator: Adobe Illustrator 27.0.0, SVG Export Plug-In . SVG Version: 6.00 Build 0)  -->
<svg version="1.1" id="Layer_1" xmlns="http://www.w3.org/2000/svg" xmlns:xlink="http://www.w3.org/1999/xlink" x="0px" y="0px"
	 viewBox="0 0 168 48" style="enable-background:new 0 0 168 48;" xml:space="preserve">
<style type="text/css">
	.st0{fill:#343433;}
</style>
<path class="st0" d="M8.64,0.17c-3.43,1.44-7.21,5.5-8.4,10.6c-1.51,6.46,4.77,9.19,5.29,8.3c0.61-1.05-1.13-1.41-1.48-4.76
	C3.58,9.97,5.59,5.13,8.12,3.01c0.47-0.39,0.45,0.15,0.45,1.17c0,1.82-0.1,18.11-0.1,21.51c0,4.6-0.19,6.05-0.53,7.49
	C7.6,34.64,7.04,35.62,7.46,36c0.47,0.42,2.48-0.58,3.64-2.21c1.4-1.95,1.88-4.29,1.97-6.83c0.11-3.06,0.1-7.92,0.11-10.69
	c0-2.54,0.04-9.98-0.04-14.46C13.12,0.72,10.07-0.44,8.64,0.17"/>
<path class="st0" d="M130.59,21.7c-0.11,2.39-0.64,4.26-1.3,5.58c-1.27,2.55-3.91,3.35-5.03-0.32c-0.61-2-0.64-5.34-0.2-8.13
	c0.45-2.84,1.7-4.99,3.76-4.8C129.86,14.22,130.81,16.84,130.59,21.7L130.59,21.7z M96.22,36.54c-0.03,3.97-0.65,7.46-1.99,8.47
	c-1.9,1.44-4.46,0.36-3.93-2.54c0.47-2.57,2.68-5.19,5.93-8.39C96.22,34.08,96.23,34.81,96.22,36.54z M95.7,21.68
	c-0.12,2.18-0.68,4.37-1.3,5.6c-1.27,2.55-3.93,3.35-5.03-0.32c-0.75-2.51-0.57-5.76-0.2-7.81c0.48-2.66,1.66-5.12,3.76-5.12
	C94.98,14.02,95.99,16.27,95.7,21.68z M75.79,21.64c-0.12,2.31-0.58,4.24-1.3,5.64c-1.31,2.54-3.89,3.34-5.03-0.32
	c-0.82-2.64-0.54-6.24-0.2-8.19c0.51-2.89,1.78-4.94,3.76-4.74C75.06,14.22,76.05,16.84,75.79,21.64L75.79,21.64z M167.04,24.34
	c-0.5,0-0.72,0.51-0.91,1.38c-0.65,3.01-1.34,3.68-2.22,3.68c-0.99,0-1.88-1.49-2.1-4.47c-0.18-2.34-0.15-6.66,0.08-10.95
	c0.05-0.88-0.2-1.75-2.56-2.61c-1.02-0.37-2.5-0.91-3.23,0.86c-2.08,5.02-2.89,9.01-3.09,10.63c-0.01,0.08-0.11,0.1-0.13-0.09
	c-0.12-1.3-0.4-3.65-0.43-8.61c-0.01-0.97-0.21-1.79-1.28-2.46c-0.69-0.44-2.79-1.21-3.55-0.29c-0.66,0.75-1.41,2.77-2.2,5.17
	c-0.64,1.95-1.09,3.27-1.09,3.27s0.01-5.26,0.02-7.25c0-0.75-0.51-1-0.67-1.05c-0.7-0.2-2.08-0.54-2.67-0.54
	c-0.72,0-0.9,0.4-0.9,0.99c0,0.08-0.12,6.92-0.12,11.71c0,0.21,0,0.43,0,0.68c-0.4,2.2-1.7,5.19-3.11,5.19
	c-1.41,0-2.08-1.25-2.08-6.96c0-3.33,0.1-4.78,0.15-7.19c0.03-1.39,0.08-2.45,0.08-2.69c-0.01-0.74-1.29-1.12-1.89-1.25
	c-0.6-0.14-1.12-0.19-1.53-0.17c-0.58,0.03-0.98,0.41-0.98,0.93c0,0.28,0,0.81,0,0.81c-0.74-1.17-1.93-1.98-2.73-2.21
	c-2.14-0.63-4.37-0.07-6.05,2.28c-1.34,1.87-2.14,3.99-2.46,7.03c-0.23,2.22-0.16,4.48,0.26,6.39c-0.5,2.15-1.42,3.03-2.43,3.03
	c-1.47,0-2.54-2.4-2.41-6.55c0.08-2.73,0.63-4.64,1.22-7.41c0.26-1.18,0.05-1.8-0.47-2.39c-0.47-0.54-1.49-0.82-2.94-0.48
	c-1.04,0.24-2.52,0.51-3.88,0.71c0,0,0.08-0.33,0.15-0.9c0.35-3.02-2.93-2.78-3.98-1.81c-0.62,0.58-1.05,1.26-1.21,2.48
	c-0.26,1.94,1.33,2.85,1.33,2.85c-0.52,2.38-1.79,5.48-3.1,7.72c-0.7,1.2-1.24,2.09-1.94,3.04c-0.02-3.8,0-7.6,0.07-11.4
	c0.03-1.39,0.08-2.42,0.08-2.67c-0.01-0.54-0.32-0.75-0.98-1.01c-0.58-0.23-1.27-0.39-1.99-0.44c-0.9-0.07-1.44,0.41-1.43,0.97
	c0,0.11,0,0.76,0,0.76c-0.74-1.17-1.93-1.98-2.73-2.21c-2.14-0.63-4.37-0.07-6.05,2.28c-1.34,1.87-2.21,4.49-2.46,7.01
	c-0.23,2.34-0.19,4.33,0.13,6.01c-0.34,1.68-1.32,3.44-2.42,3.44c-1.41,0-2.22-1.25-2.22-6.96c0-3.33,0.1-4.78,0.15-7.19
	c0.03-1.39,0.08-2.45,0.08-2.69c-0.01-0.74-1.29-1.11-1.89-1.25c-0.62-0.14-1.16-0.2-1.58-0.17c-0.55,0.04-0.93,0.53-0.93,0.89v0.84
	c-0.74-1.17-1.93-1.98-2.73-2.21c-2.14-0.63-4.35-0.06-6.05,2.28c-1.1,1.53-2,3.22-2.46,6.97c-0.13,1.08-0.19,2.1-0.18,3.05
	c-0.44,2.69-2.39,5.8-3.98,5.8c-0.93,0-1.82-1.81-1.82-5.66c0-5.13,0.32-12.43,0.37-13.13c0,0,2.01-0.03,2.4-0.04
	c1-0.01,1.91,0.01,3.25-0.06c0.67-0.03,1.32-2.44,0.62-2.74c-0.31-0.13-2.53-0.25-3.41-0.27c-0.74-0.02-2.79-0.17-2.79-0.17
	s0.18-4.85,0.23-5.36c0.04-0.43-0.52-0.65-0.83-0.78c-0.77-0.33-1.46-0.48-2.28-0.65c-1.13-0.23-1.64,0-1.74,0.95
	c-0.15,1.44-0.23,5.68-0.23,5.68c-0.83,0-3.66-0.16-4.48-0.16c-0.77,0-1.6,3.31-0.54,3.35c1.22,0.05,3.36,0.09,4.77,0.13
	c0,0-0.06,7.42-0.06,9.72c0,0.24,0,0.48,0,0.71c-0.78,4.06-3.52,6.25-3.52,6.25c0.59-2.68-0.61-4.7-2.78-6.4
	c-0.8-0.63-2.37-1.82-4.14-3.12c0,0,1.02-1.01,1.93-3.03c0.64-1.43,0.67-3.07-0.91-3.44c-2.6-0.6-4.75,1.31-5.39,3.35
	c-0.5,1.58-0.23,2.75,0.74,3.97c0.07,0.09,0.15,0.18,0.23,0.27c-0.59,1.13-1.39,2.66-2.08,3.84c-1.9,3.28-3.33,5.88-4.41,5.88
	c-0.87,0-0.85-2.63-0.85-5.1c0-2.13,0.16-5.32,0.28-8.63c0.04-1.09-0.51-1.72-1.42-2.28c-0.56-0.34-1.75-1.02-2.44-1.02
	c-1.03,0-4.01,0.14-6.82,8.27c-0.35,1.03-1.05,2.89-1.05,2.89l0.06-9.78c0-0.23-0.12-0.45-0.4-0.6c-0.47-0.26-1.74-0.78-2.86-0.78
	c-0.54,0-0.8,0.25-0.8,0.75l-0.1,15.3c0,1.16,0.03,2.52,0.15,3.11c0.11,0.59,0.3,1.08,0.53,1.36c0.23,0.29,0.5,0.51,0.93,0.6
	c0.41,0.08,2.64,0.37,2.75-0.48c0.14-1.02,0.14-2.13,1.32-6.25c1.82-6.42,4.2-9.55,5.32-10.66c0.2-0.19,0.42-0.21,0.41,0.11
	c-0.05,1.41-0.22,4.92-0.33,7.91c-0.3,7.99,1.15,9.47,3.23,9.47c1.59,0,3.83-1.58,6.23-5.58c1.34-2.23,2.67-4.46,4-6.69
	c0.73,0.67,1.54,1.4,2.36,2.17c1.9,1.8,2.52,3.51,2.11,5.13c-0.32,1.24-1.51,2.52-3.62,1.28c-0.62-0.36-0.88-0.64-1.5-1.05
	c-0.33-0.22-0.84-0.29-1.15-0.05c-0.79,0.6-1.25,1.36-1.51,2.3c-0.25,0.92,0.67,1.4,1.62,1.82c0.82,0.36,2.58,0.69,3.7,0.73
	c4.37,0.15,7.88-2.11,10.32-7.94c0.44,5.03,2.29,7.88,5.52,7.88c2.16,0,4.32-2.79,5.27-5.54c0.27,1.12,0.67,2.09,1.19,2.91
	c2.49,3.94,7.31,3.09,9.74-0.25c0.75-1.03,0.86-1.41,0.86-1.41c0.35,3.16,2.9,4.26,4.36,4.26c1.63,0,3.32-0.77,4.5-3.43
	c0.14,0.29,0.29,0.56,0.45,0.83c2.49,3.94,7.31,3.09,9.74-0.25c0.11-0.16,0.21-0.3,0.3-0.43l0.07,2.08l-2.23,2.05
	c-3.74,3.43-6.58,6.03-6.79,9.06c-0.27,3.86,2.86,5.3,5.24,5.49c2.51,0.2,4.67-1.19,5.99-3.14c1.17-1.71,1.93-5.4,1.87-9.04
	c-0.02-1.46-0.06-3.31-0.09-5.3c1.31-1.53,2.79-3.45,4.16-5.71c1.48-2.46,3.08-5.76,3.89-8.33c0,0,1.38,0.01,2.86-0.08
	c0.47-0.03,0.61,0.07,0.52,0.41c-0.11,0.42-1.86,7.2-0.26,11.72c1.1,3.09,3.58,4.09,5.04,4.09c1.72,0,3.36-1.3,4.24-3.23
	c0.11,0.21,0.22,0.42,0.34,0.61c2.49,3.94,7.3,3.09,9.74-0.25c0.55-0.75,0.86-1.41,0.86-1.41c0.52,3.27,3.07,4.28,4.53,4.28
	c1.52,0,2.96-0.62,4.13-3.39c0.05,1.22,0.13,2.21,0.25,2.53c0.07,0.19,0.51,0.43,0.82,0.55c1.39,0.51,2.8,0.27,3.33,0.17
	c0.36-0.07,0.65-0.36,0.68-1.12c0.1-1.97,0.04-5.29,0.64-7.76c1-4.14,1.94-5.74,2.39-6.54c0.25-0.45,0.53-0.52,0.54-0.05
	c0.02,0.95,0.07,3.75,0.46,7.51c0.29,2.77,0.67,4.4,0.96,4.92c0.84,1.48,1.87,1.55,2.71,1.55c0.54,0,1.66-0.15,1.56-1.09
	c-0.05-0.46,0.04-3.3,1.03-7.37c0.65-2.66,1.72-5.07,2.11-5.95c0.14-0.32,0.21-0.07,0.21-0.02c-0.08,1.83-0.27,7.83,0.48,11.11
	c1.01,4.44,3.94,4.94,4.96,4.94c2.18,0,3.96-1.66,4.56-6.02C167.89,25.15,167.68,24.34,167.04,24.34z"/>
<text transform="matrix(1 0 0 1 382 16)" style="font-family:'MyriadPro-Regular'; font-size:12px;">Lorem ipsum</text>
</svg>
